X: 13301
T: Flagstone Path, The
R: reel
M: 4/4
K: Dmajor
B|ADDB ADDA|dAea fddf|gBga fddA|BdcA GGGB|
ADDB ADDA|dAea fddf|gBga fddA|BdAF DADA||
DAFa fddf|gBga fddf|gBga fddA|BdcA GGGA|
DAFa fddf|gBga fddf|gafg efdA|BdAF DAD2||

